icons/svg/old_road_shields/h_sec_shield1.svg

<svg width="18" height="18" viewBox="0 0 18 18" fill="none" xmlns="http://www.w3.org/2000/svg">
<g clip-path="url(#clip0)">
<path fill-rule="evenodd" clip-rule="evenodd" d="M8.55601 -0.0140076C13.3 -0.0140076 17.128 3.81999 17.128 8.57099C17.128 13.294 13.3 17.155 8.55601 17.155C3.81401 17.155 -0.0159912 13.294 -0.0159912 8.57099C-0.0159912 3.82099 3.81401 -0.0140076 8.55601 -0.0140076Z" fill="#E7B868"/>
<path fill-rule="evenodd" clip-rule="evenodd" d="M8.55599 1.04501C12.7 1.04501 16.071 4.39301 16.071 8.57101C16.071 12.719 12.7 16.096 8.55599 16.096C4.41299 16.096 1.04199 12.719 1.04199 8.57101C1.04199 4.39301 4.41299 1.04501 8.55599 1.04501Z" fill="white"/>
<path fill-rule="evenodd" clip-rule="evenodd" d="M8.55599 2.819C11.727 2.819 14.3 5.394 14.3 8.571C14.3 11.747 11.728 14.294 8.55599 14.294C5.384 14.294 2.814 11.747 2.814 8.571C2.814 5.394 5.384 2.819 8.55599 2.819Z" fill="#E7B868"/>
</g>
<defs>
<clipPath id="clip0">
<path d="M0 0H17.111V17.143H0V0Z" fill="white"/>
</clipPath>
</defs>
</svg>

<?xml version="1.0" encoding="utf-8"?>
<!-- Generator: Adobe Illustrator 16.0.4, SVG Export Plug-In . SVG Version: 6.00 Build 0)  -->
<!DOCTYPE svg PUBLIC "-//W3C//DTD SVG 1.1//EN" "http://www.w3.org/Graphics/SVG/1.1/DTD/svg11.dtd">
<svg version="1.1" id="Слой_1" xmlns="http://www.w3.org/2000/svg" xmlns:xlink="http://www.w3.org/1999/xlink" x="0px" y="0px"
	 width="17.111px" height="17.143px" viewBox="0 0 17.111 17.143" enable-background="new 0 0 17.111 17.143" xml:space="preserve">
<path fill-rule="evenodd" clip-rule="evenodd" fill="#E7B868" d="M8.556-0.014c4.744,0,8.572,3.834,8.572,8.585
	c0,4.723-3.828,8.584-8.572,8.584c-4.742,0-8.572-3.861-8.572-8.584C-0.016,3.821,3.814-0.014,8.556-0.014L8.556-0.014z"/>
<path fill-rule="evenodd" clip-rule="evenodd" fill="#FFFFFF" d="M8.556,1.045c4.144,0,7.515,3.348,7.515,7.526
	c0,4.148-3.371,7.525-7.515,7.525c-4.143,0-7.514-3.377-7.514-7.525C1.042,4.393,4.413,1.045,8.556,1.045L8.556,1.045z"/>
<path fill-rule="evenodd" clip-rule="evenodd" fill="#E7B868" d="M8.556,2.819c3.171,0,5.744,2.575,5.744,5.752
	c0,3.176-2.572,5.723-5.744,5.723c-3.172,0-5.742-2.547-5.742-5.723C2.814,5.394,5.384,2.819,8.556,2.819L8.556,2.819z"/>
</svg>
